X: 95
T: Tretur
B:[[Notböcker/Melodier til gamle danske Almuedanse for Violin solo]]
O:Danmark
Z:Søren Bak Vestergaard
M: 2/4
L: 1/8
K: D
dAFA|GBAG|FDEF|GBAG|FGAB|cdef|d2 d2|d2 z2:|\
|:!downbow!dAAA|fAAA|gAAA|fAAA|dAAA|fAAA|gece|d2 z2:|\
|:!downbow!a4|gfed|fdfa|d'2 z2|!downbow!b2 (3(gfg)|a2 (3(fef)|gece|d2 z2:|

